X:173
%%pagewidth 9in
%%vocalfont Baskerville10Pro 14
T:New mad Tom of Bedlam, or Mad Tom (Part 1)
M:C
L:1/8
K:A
%%score 1 2
V:1 clef-treble
V:2 clef-bass octave=-1
[V:1][CA]2AB c2A2|[Ge]2E2 E4|E2EF G2E2|[CA]2A,2 A,3B,|
w:Forth from my sad and dark-some cell. From the* deep a-byss of hell, Mad
w:Fear and desp-air pur-sue my soul, Hark, how* the angry fu-ries howl, Plu-
[V:2][A,EA]2AB c2A2|[EB]2E2 E4|[E,B,EG]2EF G2E2|[A,E]2A,2 A,4|

